X: 14551
T: Gan Ainm
R: reel
M: 4/4
K: Edorian
Beed e2 fg|f2 ef dBAF|EBBA BAFD|EBBA BA F2|
Beed e2 fg|f2 ef dBAF|EBBA BAFD|1 EFFE D3 A:|2 EFFE DEFG||
A2 AB ADFA|BGdB BAGB|A2 AB ADFD|~E3 D EFGB|
A2 AB ADFA|BGdB BAGB|A2 AB ADFD|1 EFFE DEFG:|2 EFFE D3 A||

